Obsidian-SemiLight/actions/22s/node-type-smooth.svg

<svg xmlns="http://www.w3.org/2000/svg" viewBox="0 0 22 22">
  <defs id="defs3051">
    <style type="text/css" id="current-color-scheme">
      .ColorScheme-Text {
        color:#4d4d4d;
      }
      .ColorScheme-Highlight {
        color:#3daee9;
      }
      </style>
  </defs>
 <path 
     style="fill:currentColor;fill-opacity:1;stroke:none" 
     d="M 1 2 A 10 15 0 0 0 9 16.679688 L 9 15.636719 A 9 14 0 0 1 2 2 L 1 2 z M 20 2 A 9 14 0 0 1 13 15.632812 L 13 16.695312 A 10 15 0 0 0 21 2 L 20 2 z M 3 15 L 3 18 L 6 18 L 6 17 L 7 17 L 7 16 L 6 16 L 6 15 L 3 15 z M 18 15 L 18 16 L 17 16 L 17 17 L 18 17 L 18 18 L 21 18 L 21 15 L 18 15 z M 4 16 L 5 16 L 5 17 L 4 17 L 4 16 z M 15 16 L 15 17 L 16 17 L 16 16 L 15 16 z M 19 16 L 20 16 L 20 17 L 19 17 L 19 16 z "
     class="ColorScheme-Text"
     />
 <path 
     style="fill:currentColor;fill-opacity:1;stroke:none" 
     d="M 8.5 14 L 8.5 19 L 13.5 19 L 13.5 14 L 8.5 14 z M 9.5 15 L 12.5 15 L 12.5 18 L 9.5 18 L 9.5 15 z "
     class="ColorScheme-Highlight"
     />
</svg>

<svg viewBox="0 0 22 22" xmlns="http://www.w3.org/2000/svg"><path d="m1 2a10 15 0 0 0 8 14.679688v-1.042969a9 14 0 0 1 -7-13.636719zm19 0a9 14 0 0 1 -7 13.632812v1.0625a10 15 0 0 0 8-14.695312zm-17 13v3h3v-1h1v-1h-1v-1zm15 0v1h-1v1h1v1h3v-3zm-14 1h1v1h-1zm11 0v1h1v-1zm4 0h1v1h-1z" fill="#4d4d4d"/><path d="m8.5 14v5h5v-5zm1 1h3v3h-3z" fill="#3daee9"/></svg>
